X:1
T:The shepherd Strephon - Mundy
T:#
T:#
%%score [ 1 2 3 4 ]
L:1/8
Q:1/4=108
M:4/2
K:F
V:1 treble nm="Soprano" snm="S"
V:2 treble nm="Alto" snm="A"
V:3 treble-8 nm="Tenor" snm="T"
V:4 bass nm="Bass" snm="B"
V:1
 z16 | z4 z4 z4"^The shepherd Strephon""^John Mundy\n(c. 1555-1630)" c4 | f2 e2 d4 d4 =B2 G2 | %3
w: |The|shep- herd Stre- phon, lov- ed,|
[M:4/2] z2 c3 d e2 f3 f e4 | z4 z4 z2 d2 e2 d2 | g3 f e2 c2 f4 e4 | d4 z2 G2 c2 d2 e4 | %7
w: lov- ed fair Do- ri- da,|The fin- est|shep- herd is in all our|field, Whose loy- al love,|
 c4 d4 c2 f4 e2 | f8 z2 c2 d2 c2 | _e6 d2 c4 A2 B2- | B2 A2 G4 z4 f4- | f4 e2 d2 c8 | z4 d8 c2 B2 | %13
w: when she would not o-|bey, ne by en-|treat- ies for- ced once|* to yield, all|* on his knees,|all on his|
 A6 c2 d2 c2 A2 =B2 | c8 z4 c4 | f6 e2 d4 c4 | _e4 d4 c8- | c4 c4 A16 |] %18
w: knees, un- to the seem- ly|saint, In|woe- ful wise thus|gan he make|* his plaint.|
V:2
 z4 z4 F4 c2 B2 | A4 F4 G4 A4- | A2 G4 ^F2 G8 |[M:4/2] G6 c4 =B2 c2 G2 | A3 B c4 =B8 | %5
w: The shep- herd|Stre- phon loved fair|* Do- ri- da,|fair Do- ri- da, The|fin- est shep- herd|
 c6 c2 d4 c4 | =B6 B2 A2 B2 c4 | A4 _B4 A4 B2 G2 | A3 B c2 B2 A4 B2 A2 | G6 B2 G4 F2 G2- | %10
w: is in all our|field, Whose loy- al love|when she would not o-|bey, ne by en- treat- ies, en-|treat- ies for- ced once|
 G2 (F4 E2) F4 C4 | D4 F8 E4 | F4 D8 E4 | F6 G2 A3 G F2 D2 | E6 F2 E4 (A,2 B,2) | C4 F4 B6 A2 | %16
w: * to * yield, to|yield, all on|his knees un-|to the seem- ly saint, In|woe- ful wise thus *|gan he make his|
 G4 F4 E4 F4- | F4 E4 F16 |] %18
w: plaint, gan he make|* his plaint.|
V:3
 c4 (f2 e2) d4 (A2 B2) | c4 d2 f4 e2 f4 | c4 A4 =B3 c d2 B2 |[M:4/2][K:treble-8] c2 e4 g2 f4 g4 | %4
w: The shep\- * herd Stre\- *|phon loved fair Do- ri-|da, The fin- est shep- herd|is in all our field,|
 z2 c2 e2 c2 g4 z2 d2 | e2 c2 g2 a2 b4 g4 | g4 d4 f4 g4 | f6 f2 f2 c2 B4 | c4 A2 B2 c2 (F3 G) A2 | %9
w: in all our field, the|fin- est shep- herd is in|all our field, Whose|loy- al love when she|would not o- bey, by * en-|
 B6 f4 e2 c2 _e2- | e2 c2 c6 B2 A2 G2 | A4 B4 G8 | A4 G4 B8 | c6 e2 f2 (e2 d4) | c4 G4 c6 B2 | %15
w: treat- ies for- ced once|* to yield, all on his|* knees, all|on his knees|to the seem- ly *|saint, In woe- ful|
 A2 G2 A4 z4 F4 | B6 A2 G4 A4 | G2 F2 G4 F16 |] %18
w: wise thus gan, in|woe- ful wise gan|he make his plaint.|
V:4
 z16 | (F,4 B,2) A,2 (G,4 F,4- | F,2) (C,2 D,4) G,8 |[M:4/2] E,2 C,2 C4 D4 C4 | A,8 G,8 | %5
w: |The * shep- herd *|* Stre\- * phon,|lov- ed fair Do- ri-|da, The|
 C,4 C,4 B,,4 C,4 | G,6 G,2 F,2 D,2 C,4 | F,4 B,,4 F,4 G,4 | F,8 F,4 B,,2 F,2 | %9
w: fin- est shep- herd|is in all our field,|she would not o-|bey, ne by en-|
 _E,6 B,,2 C,4 F,2 E,2- | E,2 F,2 C,4 F,6 (=E,2 | D,4) (C,2 B,,2) C,8 | F,4 B,4 G,8 | %13
w: treat- ies for- ced once|* to yield, all on|* his * knees,|all on his|
 F,6 E,2 D,3 E, F,2 G,2 | C,8 C,4 F,4- | F,2 (E,2 D,2 C,2) B,,4 F,4 | _E,4 B,,4 C,4 (A,,4 | %17
w: knees un- to the seem- ly|saint, In woe\-|* ful * * wise thus|gan he make his|
 C,8) F,16 |] %18
w: * plaint.|

